src/front_assets/svg/station.svg

<?xml version="1.0" encoding="utf-8"?><!-- Uploaded to: SVG Repo, www.svgrepo.com, Generator: SVG Repo Mixer Tools -->
<svg width="800px" height="800px" viewBox="0 0 24 24" fill="none" xmlns="http://www.w3.org/2000/svg">
<path opacity="0.4" d="M19.1414 2.07816C20.9097 3.88191 22 6.3527 22 9.07816C22 11.836 20.8836 14.333 19.0782 16.1421M5 16.2196C3.14864 14.4047 2 11.8756 2 9.07816C2 6.31313 3.12222 3.8102 4.93603 2" stroke="#1C274C" stroke-width="1.5" stroke-linecap="round" stroke-linejoin="round"/>
<path opacity="0.7" d="M16.2849 5.1221C17.3458 6.13689 18 7.52697 18 9.06033C18 10.6119 17.3302 12.0167 16.2469 13.0345M7.8 13.0781C6.68918 12.057 6 10.6342 6 9.06033C6 7.50471 6.67333 6.09655 7.76162 5.07812" stroke="#1C274C" stroke-width="1.5" stroke-linecap="round" stroke-linejoin="round"/>
<circle cx="12" cy="9.07812" r="2" stroke="#1C274C" stroke-width="1.5"/>
<path d="M12.5 11L16 22L10.5 15.5M11.5 11L8 22L13.5 15.5" stroke="#1C274C" stroke-width="1.5" stroke-linecap="round" stroke-linejoin="round"/>
</svg>

<svg xmlns="http://www.w3.org/2000/svg" width="800" height="800" fill="none" viewBox="0 0 24 24"><path stroke="#1C274C" stroke-linecap="round" stroke-linejoin="round" stroke-width="1.5" d="M19.141 2.078a9.97 9.97 0 0 1 2.859 7 9.97 9.97 0 0 1-2.922 7.064M5 16.22a9.97 9.97 0 0 1-3-7.142A9.97 9.97 0 0 1 4.936 2" opacity=".4"/><path stroke="#1C274C" stroke-linecap="round" stroke-linejoin="round" stroke-width="1.5" d="M16.285 5.122C17.345 6.137 18 7.527 18 9.06c0 1.552-.67 2.957-1.753 3.974m-8.447.044C6.69 12.057 6 10.634 6 9.06c0-1.555.673-2.963 1.762-3.982" opacity=".7"/><circle cx="12" cy="9.078" r="2" stroke="#1C274C" stroke-width="1.5"/><path stroke="#1C274C" stroke-linecap="round" stroke-linejoin="round" stroke-width="1.5" d="M12.5 11 16 22l-5.5-6.5m1-4.5L8 22l5.5-6.5"/></svg>
